src/64x64/places/folder-gruvbox-original-aqua-locked.svg

<?xml version="1.0" encoding="UTF-8"?>
<svg width="64" height="64" version="1" xmlns="http://www.w3.org/2000/svg">
 <rect x="4" y="22" width="56" height="36" rx="2.8" ry="2.8" opacity=".2"/>
 <path d="m4 46.2c0 1.551 1.2488 2.8 2.8 2.8h50.4c1.551 0 2.8-1.249 2.8-2.8v-30.4c0-1.551-1.249-2.8-2.8-2.8h-25.2c-4.2 0-5.6-6-9.8-6h-15.4c-1.5512 0-2.8 1.2488-2.8 2.8" fill="#427b58"/>
 <rect x="4" y="20" width="56" height="36" rx="2.8" ry="2.8" opacity=".2"/>
 <rect x="8" y="16" width="48" height="22" rx="2.8" ry="2.8" fill="#D5D7B3"/>
 <rect x="4" y="21" width="56" height="36" rx="2.8" ry="2.8" fill="#8ec07c"/>
 <path d="m6.8008 7c-1.5512 0-2.8008 1.2496-2.8008 2.8008v1.0002c0-1.5514 1.2496-2.801 2.8008-2.801h15.398c4.2 0 5.601 6 9.801 6h25.199c1.551 0 2.801 1.25 2.801 2.801v-1c0-1.551-1.25-2.801-2.801-2.801h-25.199c-4.2 0-5.601-6-9.801-6z" fill="#D5D7B3" opacity=".1"/>
 <path d="m32 29c-3.32 0-6 2.6-6 6v2h-1c-0.554 0-1 0.446-1 1v10c0 0.554 0.446 1 1 1h14c0.554 0 1-0.446 1-1v-10c0-0.554-0.446-1-1-1h-1v-2c0-3.4-2.68-6-6-6zm0 2c2.22 0 4 1.8 4 4v2h-8v-2c0-2.2 1.78-4 4-4z" fill="#313D38"/>
</svg>

<svg xmlns="http://www.w3.org/2000/svg" width="64" height="64" version="1">
 <rect style="opacity:0.2" width="56" height="36" x="4" y="22" rx="2.8" ry="2.8"/>
 <path style="fill:#427b58" d="M 4,46.2 C 4,47.751 5.2488,49 6.8,49 H 57.2 C 58.751,49 60,47.751 60,46.2 V 15.8 C 60,14.249 58.751,13 57.2,13 H 32 C 27.8,13 26.4,7 22.2,7 H 6.8 C 5.2488,7 4,8.2488 4,9.8"/>
 <rect style="opacity:0.2" width="56" height="36" x="4" y="20" rx="2.8" ry="2.8"/>
 <rect style="fill:#D5D7B3" width="48" height="22" x="8" y="16" rx="2.8" ry="2.8"/>
 <rect style="fill:#8ec07c" width="56" height="36" x="4" y="21" rx="2.8" ry="2.8"/>
 <path style="opacity:0.1;fill:#D5D7B3" d="M 6.8008,7 C 5.2496,7 4,8.2496 4,9.8008 V 10.801 C 4,9.2496 5.2496,8 6.8008,8 H 22.199 C 26.399,8 27.8,14 32,14 H 57.199 C 58.75,14 60,15.25 60,16.801 V 15.801 C 60,14.25 58.75,13 57.199,13 H 32 C 27.8,13 26.399,7 22.199,7 Z"/>
 <path style="fill:#313D38" d="M 32,29 C 28.68,29 26,31.6 26,35 V 37 H 25 C 24.446,37 24,37.446 24,38 V 48 C 24,48.554 24.446,49 25,49 H 39 C 39.554,49 40,48.554 40,48 V 38 C 40,37.446 39.554,37 39,37 H 38 V 35 C 38,31.6 35.32,29 32,29 Z M 32,31 C 34.22,31 36,32.8 36,35 V 37 H 28 V 35 C 28,32.8 29.78,31 32,31 Z"/>
</svg>
